X:14
T:Jockey to the Fair
Z: id:dc-setdance-15
M:6/8
L:1/8
K:G Major
D|G2A B2c|d2g d2c|BdG GFG|cBc A2c|!
d^cd efg|a2f d2g|fed AB^c|d3 d2:|!
f|afd afd|c2c B2c|dgd dgd|c2c B2d|!
e2f gfe|d2c B2d|edc B2A|B2G E2F|GAG GBd|!
e2f g2e|dBG A2B|E2F G2A|B2g B2A|G3 G2|]!

